public/images/placeofinterrests/la.svg

<?xml version="1.0" encoding="UTF-8" standalone="no"?>
<svg width="48px" height="49px" viewBox="0 0 48 49" version="1.1" xmlns="http://www.w3.org/2000/svg" xmlns:xlink="http://www.w3.org/1999/xlink">
    <!-- Generator: Sketch 42 (36781) - http://www.bohemiancoding.com/sketch -->
    <title>LA</title>
    <desc>Created with Sketch.</desc>
    <defs></defs>
    <g id="Page-1" stroke="none" stroke-width="1" fill="none" fill-rule="evenodd">
        <g id="LA">
            <polygon id="Path-10" fill="#FFFFFF" points="0 2.17777778 7.57894737 45.7333333 44.2105263 49 48 0"></polygon>
            <polygon id="L" fill="#18252D" points="14.754937 9.24407168 14.754937 31.4802867 28.2000799 31.4802867 28.2000799 27.4595269 18.8817942 27.4595269 18.8817942 9.24407168"></polygon>
            <path d="M27.298973,20.9188507 L25.0876787,27.4059857 L29.5135616,27.4059857 L27.298973,20.9188507 Z M25.3111415,14.5986786 L25.4688558,14.6500621 L29.1225701,14.6500621 L29.2802844,14.5986786 L29.2999816,14.6500621 L29.352553,14.6500621 L29.352553,14.8009928 L36.7486873,36.5008841 L36.804553,36.5008841 L36.804553,36.6614576 L36.8571244,36.8188196 L36.804553,36.8348769 L36.804553,36.8862605 L36.6435444,36.8862605 L36.4825701,36.937644 L36.466133,36.8862605 L32.9208216,36.8862605 L32.7631073,36.937644 L32.7467044,36.8862605 L32.6908387,36.8862605 L32.6908387,36.7224755 L30.883713,31.4267795 L23.7175616,31.4267795 L21.9136959,36.7128411 L21.9136959,36.8862605 L21.8578302,36.8862605 L21.8414273,36.937644 L21.6837135,36.8862605 L18.128553,36.8862605 L18.1088564,36.937644 L17.9511421,36.8862605 L17.7868387,36.8862605 L17.7868387,36.8316655 L17.7342673,36.8156081 L17.7868387,36.6518232 L17.7868387,36.5008841 L17.8394101,36.5008841 L25.2388387,14.8106189 L25.2388387,14.6500621 L25.2947044,14.6500621 L25.3111415,14.5986786 Z" id="A" fill="#18252D"></path>
        </g>
    </g>
</svg>

<svg width="48" height="49" viewBox="0 0 48 49" xmlns="http://www.w3.org/2000/svg"><title>LA</title><g fill="none" fill-rule="evenodd"><path fill="#FFF" d="M0 2.178l7.579 43.555L44.21 49 48 0z"/><path fill="#18252D" d="M14.755 9.244V31.48H28.2v-4.02h-9.318V9.244z"/><path d="M27.299 20.919l-2.211 6.487h4.426l-2.215-6.487zm-1.988-6.32l.158.051h3.654l.157-.051.02.051h.053v.151l7.396 21.7h.056v.16l.052.158-.052.016v.051h-.161l-.161.052-.017-.052h-3.545l-.158.052-.016-.052h-.056v-.164l-1.807-5.295h-7.166l-1.804 5.286v.173h-.056l-.017.052-.157-.052h-3.555l-.02.052-.158-.052h-.164v-.054l-.053-.016.053-.164V36.5h.052l7.4-21.69v-.16h.056l.016-.052z" fill="#18252D"/></g></svg>
